X:1
T: Miss Geddes
C:
R:Strathspey
Q: 128
K:G
M:4/4
L:1/16
|:g2|ddd2 d3B G3A B3d|eee2 e3d B3d e2g2|ddd2 d3B G3A B2d2|ddd2 g2B2 A4 G2g2|
ddd2 d3B G3A B3d|eee2 e3d B3d e2g2|ddd2 d3B G3A B2d2|ddd2 g2B2 A4 G2d2|
ggg2 g3e d3e g2d2|aaa2 a3g e3g a2b2|ggg2 g3e d3e g2a2|ee3 g2B2 A4 G2d2|
ggg2 g3e d3e g2d2|aaa2 a3g e3g a2b2|gb3 eg3 dg3 Bd3|ee3 g2B2 A4 G2:|
